X: 17
T: Laurel Hill
R: march, polka
M: 2/4
L: 1/16
Z: 2010 John Chambers <jc:trillian.mit.edu> (tune)
Z: 2015 John Chambers <jc:trillian.mit.edu> (dance)
S: http://archive.org/details/imslp-american-country-dances-1785-various
S: http://imslp.org/wiki/24_American_Country_Dances_(Cantelo,_Hezekiah)
B: Cantelo ed. "Twenty Four American Country Dances", London 1785 (Longman & Broderip)
N: Added missing half beat at end of 2nd part.
K: Bb
% - - - - - - - - - - - - - - - - - - - - - - - - - - - - -
V: 1
|: (BABc) .d2z2 | (BABc) .d2z2 | .e2.e2.c2.c2 | (BABc) d3c |\
   (BABc) .d2z2 | (BABc) .d2B2 | .e2.e2.c2.c2 | B4 z4 :|
|: (f3d).d2.d2 | b6ag | (f3d).d2.d2 | e2c2B2A2 |\
   (f3d).d2.d2 | b6ag |  f3d (dcBc) | B4 z4 :|
|: (b3f).f2.f2 | f2g2a2b2 | a3g(^f2g2) | g6e2 |\
    c3de2=e2 | f2^f2g3e | e2d2g2f2 | f6z2 |
   (b3f).f2.f2 | f2g2a2b2 | b3cc2c2 | c2d2e2g2 |\
   f3gf2d2 | f2e2d2c2 | (Bcdc) (Bcdc) | B6z2 :|
%
V: 2 clef=bass middle=d
|: B4b4 | B4b4 | f4F4 | B2f2b4 | B4b4 | B4b4 | f4F4 | B2b2d2B2 :|
|: "p"B2d2f2b2 | "f"E2G2B2e2 | "p"B2d2f2b2 | "f"f4e4 | d4B4 | e6e2 | f4F4 | B2b2B2z2 :|
|: B4d2B2 | d4B4 | e4z4 | e2g2b2g2 | e8 | d4A4 | B4B4 | B2b2f2d2 |
   z2B2d2B2 | b4B4 | z2F2A2F2 | f4e4 | d4B4 | f4F4 | B4B4 | B6z2 :|
% - - - - - - - - - - Dance description - - - - - - - - - -
%%begintext align
%% 1st Gen.t hands 3 round with 2 & 3 Ladies -- 1st Lady do the same
%% with 2 & 3 Gen.tn -- lead down the middle up again & cast off --
%% Ballance Rigadoon & hands 4 round at the Bottom Ballance &
%% Pas. Rig.n & right & left at Top.
%%endtext

%%sep 2 1 500

